papirus/48x48/categories/preferences-desktop-peripherals.svg

<?xml version="1.0" encoding="UTF-8" standalone="no"?>
<!-- Created with Inkscape (http://www.inkscape.org/) -->

<svg
   xmlns:dc="http://purl.org/dc/elements/1.1/"
   xmlns:cc="http://creativecommons.org/ns#"
   xmlns:rdf="http://www.w3.org/1999/02/22-rdf-syntax-ns#"
   xmlns:svg="http://www.w3.org/2000/svg"
   xmlns="http://www.w3.org/2000/svg"
   xmlns:xlink="http://www.w3.org/1999/xlink"
   xmlns:sodipodi="http://sodipodi.sourceforge.net/DTD/sodipodi-0.dtd"
   xmlns:inkscape="http://www.inkscape.org/namespaces/inkscape"
   id="svg2817"
   height="48"
   width="48"
   version="1.0"
   inkscape:version="0.91 r"
   sodipodi:docname="preferences-desktop-peripherals.svg">
  <metadata
     id="metadata57">
    <rdf:RDF>
      <cc:Work
         rdf:about="">
        <dc:format>image/svg+xml</dc:format>
        <dc:type
           rdf:resource="http://purl.org/dc/dcmitype/StillImage" />
        <dc:title />
      </cc:Work>
    </rdf:RDF>
  </metadata>
  <sodipodi:namedview
     pagecolor="#ffffff"
     bordercolor="#666666"
     borderopacity="1"
     objecttolerance="10"
     gridtolerance="10"
     guidetolerance="10"
     inkscape:pageopacity="0"
     inkscape:pageshadow="2"
     inkscape:window-width="1600"
     inkscape:window-height="840"
     id="namedview55"
     showgrid="false"
     inkscape:zoom="8.66"
     inkscape:cx="11.6998"
     inkscape:cy="23.027429"
     inkscape:window-x="-4"
     inkscape:window-y="34"
     inkscape:window-maximized="1"
     inkscape:current-layer="svg2817" />
  <defs
     id="defs2819">
    <linearGradient
       id="linearGradient2815"
       y2="17.5"
       spreadMethod="reflect"
       gradientUnits="userSpaceOnUse"
       x2="3.0052"
       y1="17.5"
       x1="44.995">
      <stop
         id="stop3277"
         style="stop-color:#fff;stop-opacity:0"
         offset="0" />
      <stop
         id="stop3283"
         style="stop-color:#fff"
         offset=".245" />
      <stop
         id="stop3285"
         style="stop-color:#fff"
         offset=".77350" />
      <stop
         id="stop3279"
         style="stop-color:#fff;stop-opacity:0"
         offset="1" />
    </linearGradient>
    <linearGradient
       id="linearGradient2813"
       y2="8"
       gradientUnits="userSpaceOnUse"
       x2="26"
       y1="22"
       x1="26">
      <stop
         id="stop3829"
         style="stop-color:#fff"
         offset="0" />
      <stop
         id="stop4295"
         style="stop-color:#fff"
         offset=".30213" />
      <stop
         id="stop4293"
         style="stop-color:#fff;stop-opacity:.69020"
         offset=".34361" />
      <stop
         id="stop3832"
         style="stop-color:#fff;stop-opacity:0"
         offset="1" />
    </linearGradient>
    <linearGradient
       id="linearGradient2811"
       y2="45.934"
       gradientUnits="userSpaceOnUse"
       x2="43.007"
       gradientTransform="matrix(1.2822 0 0 1.1747 -6.0702 -5.3032)"
       y1="30.555"
       x1="23.452">
      <stop
         id="stop4561"
         style="stop-color:#fff;stop-opacity:0"
         offset="0" />
      <stop
         id="stop4563"
         style="stop-color:#fff;stop-opacity:0"
         offset="1" />
    </linearGradient>
    <linearGradient
       id="linearGradient2809"
       y2="45.042"
       gradientUnits="userSpaceOnUse"
       x2="15.464"
       y1="7.9757"
       x1="15.464">
      <stop
         id="stop3297"
         style="stop-color:#c9af8b"
         offset="0" />
      <stop
         id="stop3299"
         style="stop-color:#ad8757"
         offset=".23942" />
      <stop
         id="stop3301"
         style="stop-color:#c2a57f"
         offset=".27582" />
      <stop
         id="stop3303"
         style="stop-color:#9d7d53"
         offset="1" />
    </linearGradient>
    <linearGradient
       id="linearGradient2807"
       y2="37.277"
       gradientUnits="userSpaceOnUse"
       x2="24.997"
       gradientTransform="matrix(1.2822 0 0 1.5573 -6.0702 -15.291)"
       y1="15.378"
       x1="24.823">
      <stop
         id="stop3201"
         style="stop-color:#dac197"
         offset="0" />
      <stop
         id="stop3203"
         style="stop-color:#c1a581"
         offset=".23942" />
      <stop
         id="stop3205"
         style="stop-color:#dbc298"
         offset=".27582" />
      <stop
         id="stop3207"
         style="stop-color:#a68b60"
         offset="1" />
    </linearGradient>
    <radialGradient
       id="radialGradient2805"
       xlink:href="#linearGradient3681"
       gradientUnits="userSpaceOnUse"
       cy="41.5"
       cx="5"
       gradientTransform="matrix(.59382 0 0 1.5367 41.141 -103.94)"
       r="5" />
    <linearGradient
       id="linearGradient2803"
       y2="35"
       gradientUnits="userSpaceOnUse"
       x2="17.554"
       gradientTransform="matrix(1.757 0 0 1.397 -17.394 -16.412)"
       y1="46"
       x1="17.554">
      <stop
         id="stop3705"
         style="stop-opacity:0"
         offset="0" />
      <stop
         id="stop3711"
         offset=".5" />
      <stop
         id="stop3707"
         style="stop-opacity:0"
         offset="1" />
    </linearGradient>
    <linearGradient
       id="linearGradient3681">
      <stop
         id="stop3683"
         offset="0" />
      <stop
         id="stop3685"
         style="stop-opacity:0"
         offset="1" />
    </linearGradient>
    <radialGradient
       id="radialGradient2801"
       xlink:href="#linearGradient3681"
       gradientUnits="userSpaceOnUse"
       cy="41.5"
       cx="5"
       gradientTransform="matrix(.59382 0 0 1.5367 -6.6595 -103.94)"
       r="5" />
    <linearGradient
       id="linearGradient2789"
       y2="25.411"
       gradientUnits="userSpaceOnUse"
       x2="57.726"
       gradientTransform="matrix(0 .71282 -.67402 0 50.746 15.046)"
       y1="25.411"
       x1="13.472">
      <stop
         id="stop4224"
         style="stop-color:#fff"
         offset="0" />
      <stop
         id="stop4226"
         style="stop-color:#fff;stop-opacity:0"
         offset="1" />
    </linearGradient>
    <linearGradient
       id="linearGradient2787"
       y2="20.71"
       gradientUnits="userSpaceOnUse"
       x2=".81572"
       gradientTransform="matrix(0 -.61460 -.58384 0 46.949 46.633)"
       y1="20.71"
       x1="28.315">
      <stop
         id="stop2266"
         style="stop-color:#d7e866"
         offset="0" />
      <stop
         id="stop2268"
         style="stop-color:#8cab2a"
         offset="1" />
    </linearGradient>
    <radialGradient
       r="5"
       gradientTransform="matrix(.59382 0 0 1.5367 41.141 -103.94)"
       cx="5"
       cy="41.5"
       gradientUnits="userSpaceOnUse"
       xlink:href="#linearGradient3681"
       id="radialGradient2805-9" />
    <radialGradient
       r="5"
       gradientTransform="matrix(.59382 0 0 1.5367 -6.6595 -103.94)"
       cx="5"
       cy="41.5"
       gradientUnits="userSpaceOnUse"
       xlink:href="#linearGradient3681"
       id="radialGradient2801-3" />
    <linearGradient
       id="linearGradient3796">
      <stop
         id="stop3798"
         offset="0"
         style="stop-color:#f7f7f7;stop-opacity:1;" />
      <stop
         id="stop3800"
         offset="1"
         style="stop-color:#ececec;stop-opacity:1;" />
    </linearGradient>
    <linearGradient
       id="linearGradient4524">
      <stop
         id="stop4526"
         offset="0"
         style="stop-color:#1c5ed1;stop-opacity:1;" />
      <stop
         id="stop4528"
         offset="1"
         style="stop-color:#3675e3;stop-opacity:1;" />
    </linearGradient>
    <linearGradient
       id="linearGradient3068-1">
      <stop
         id="stop3070-5"
         offset="0"
         style="stop-color:#dfdfdf;stop-opacity:1;" />
      <stop
         id="stop3072-7"
         offset="1"
         style="stop-color:#ffffff;stop-opacity:1;" />
    </linearGradient>
    <linearGradient
       gradientUnits="userSpaceOnUse"
       y2="1010.4795"
       x2="24.230993"
       y1="1043.1351"
       x1="24.230993"
       id="linearGradient4245"
       xlink:href="#linearGradient3068-1"
       inkscape:collect="always" />
    <linearGradient
       id="linearGradient3783-1">
      <stop
         style="stop-color:#1e94d3;stop-opacity:1;"
         offset="0"
         id="stop3785-2" />
      <stop
         id="stop3803-6"
         offset="1"
         style="stop-color:#1e94d3;stop-opacity:1;" />
    </linearGradient>
    <linearGradient
       inkscape:collect="always"
       xlink:href="#linearGradient3783-1"
       id="linearGradient3827-7"
       x1="-10"
       y1="90"
       x2="30"
       y2="50"
       gradientUnits="userSpaceOnUse" />
    <linearGradient
       id="linearGradient3821">
      <stop
         style="stop-color:#37aee2;stop-opacity:1;"
         offset="0"
         id="stop3823" />
      <stop
         style="stop-color:#1e96c8;stop-opacity:1;"
         offset="1"
         id="stop3825" />
    </linearGradient>
    <linearGradient
       id="linearGradient3829">
      <stop
         id="stop3831"
         offset="0"
         style="stop-color:#1f96d4;stop-opacity:1;" />
      <stop
         id="stop3833"
         offset="1"
         style="stop-color:#37aee2;stop-opacity:1;" />
    </linearGradient>
    <linearGradient
       id="linearGradient3877">
      <stop
         style="stop-color:#eff7fc;stop-opacity:1;"
         offset="0"
         id="stop3879" />
      <stop
         style="stop-color:#ffffff;stop-opacity:1;"
         offset="1"
         id="stop3881" />
    </linearGradient>
    <linearGradient
       y2="80"
       x2="6.6666665"
       y1="56.666668"
       x1="16.666666"
       gradientUnits="userSpaceOnUse"
       id="linearGradient3950"
       xlink:href="#linearGradient3821"
       inkscape:collect="always" />
    <linearGradient
       y2="160"
       x2="160"
       y1="120"
       x1="135"
       gradientTransform="matrix(0.19923867,0,0,0.2010056,0.25370612,1003.8542)"
       gradientUnits="userSpaceOnUse"
       id="linearGradient3980"
       xlink:href="#linearGradient3877"
       inkscape:collect="always" />
  </defs>
  <g
     id="layer7"
     inkscape:label="Baseshape"
     style="display:none"
     transform="translate(-52.273245,-2.185958)">
    <rect
       rx="9"
       ry="9"
       y="2"
       x="2"
       height="44"
       width="44"
       id="rect4169"
       style="display:inline;fill:#abe1ad;fill-opacity:1;stroke:none" />
  </g>
  <rect
     transform="matrix(0,-1,-1,0,0,0)"
     style="fill:#5c5c5c;fill-opacity:1;stroke:none"
     id="rect4203"
     width="40"
     height="40"
     x="-44"
     y="-44"
     rx="20"
     ry="20" />
  <g
     id="g4248"
     style="opacity:0.2;fill:#000000;fill-opacity:1"
     transform="translate(0,2)">
    <path
       style="fill:#000000;fill-opacity:1;fill-rule:nonzero;stroke:none;stroke-width:0.91983098"
       inkscape:connector-curvature="0"
       id="path4250"
       d="m 23.999987,8.9999999 0,11.6667001 -8.999987,0 0,-3.50001 c 0,-3.50001 4.499993,-8.1666901 8.999987,-8.1666901" />
    <path
       style="fill:#000000;fill-opacity:1;fill-rule:nonzero;stroke:none;stroke-width:0.91983098"
       d="m 23.958959,9.0000714 0,8.9064456 -8.958915,0 0,3.685339 0,0.724475 0,6.386916 c 0,4.740991 3.374983,8.296755 8.999978,8.296753 C 29.625016,37 33,33.444238 33,28.703247 l 0,-6.386916 0,-0.724475 0,-3.685339 0,-0.42041 C 33,13.849238 28.479469,9.0000714 23.958959,9.0000714 Z"
       id="path4252"
       inkscape:connector-curvature="0" />
  </g>
  <path
     style="opacity:0.2;fill:#ffffff;fill-opacity:1;stroke:none"
     d="M 24,4 C 12.92,4 4,12.92 4,24 4,24.16772 3.996,24.33329 4,24.5 4.26444,13.65365 13.08772,5 24,5 34.91228,5 43.73556,13.65365 44,24.5 44.004,24.33329 44,24.16772 44,24 44,12.92 35.08,4 24,4 Z"
     id="rect3436-2"
     inkscape:connector-curvature="0" />
  <g
     id="g4244"
     transform="translate(0,1)">
    <path
       d="m 23.999987,8.9999999 0,11.6667001 -8.999987,0 0,-3.50001 c 0,-3.50001 4.499993,-8.1666901 8.999987,-8.1666901"
       id="path61"
       inkscape:connector-curvature="0"
       style="fill:#f2f2f2;fill-opacity:1;fill-rule:nonzero;stroke:none;stroke-width:0.91983098" />
    <path
       inkscape:connector-curvature="0"
       id="path63"
       d="m 23.958959,9.0000714 0,8.9064456 -8.958915,0 0,3.685339 0,0.724475 0,6.386916 c 0,4.740991 3.374983,8.296755 8.999978,8.296753 C 29.625016,37 33,33.444238 33,28.703247 l 0,-6.386916 0,-0.724475 0,-3.685339 0,-0.42041 C 33,13.849238 28.479469,9.0000714 23.958959,9.0000714 Z"
       style="fill:#f9f9f9;fill-opacity:1;fill-rule:nonzero;stroke:none;stroke-width:0.91983098" />
  </g>
  <path
     style="fill:#4d4d4d;fill-opacity:1;fill-rule:nonzero;stroke:none;stroke-width:0.91983098"
     inkscape:connector-curvature="0"
     id="path69"
     d="m 24,16 c 0.551001,0 1,0.575999 1,1.285715 l 0,3.42857 C 25,21.424001 24.551001,22 24,22 23.448999,22 23,21.424001 23,20.714285 l 0,-3.42857 C 23,16.575999 23.448999,16 24,16 m 0,0" />
  <path
     style="fill:#000000;fill-opacity:1;stroke:none;opacity:0.3"
     d="M 4.0117188 23.5 C 4.007647 23.666859 4 23.832126 4 24 C 4 35.08 12.92 44 24 44 C 35.08 44 44 35.08 44 24 C 44 23.832126 43.992353 23.666859 43.988281 23.5 C 43.72361 34.346137 34.912126 43 24 43 C 13.087874 43 4.2763904 34.346137 4.0117188 23.5 z "
     id="rect4218" />
</svg>

<?xml version="1.0" encoding="UTF-8" standalone="no"?>
<!-- Created with Inkscape (http://www.inkscape.org/) -->
<svg id="svg2817" xmlns:rdf="http://www.w3.org/1999/02/22-rdf-syntax-ns#" xmlns="http://www.w3.org/2000/svg" height="48" width="48" version="1.0" xmlns:cc="http://creativecommons.org/ns#" xmlns:xlink="http://www.w3.org/1999/xlink" xmlns:dc="http://purl.org/dc/elements/1.1/">
 <metadata id="metadata57">
  <rdf:RDF>
   <cc:Work rdf:about="">
    <dc:format>image/svg+xml</dc:format>
    <dc:type rdf:resource="http://purl.org/dc/dcmitype/StillImage"/>
    <dc:title/>
   </cc:Work>
  </rdf:RDF>
 </metadata>
 <g id="layer7" display="none" transform="translate(-52.273 -2.186)">
  <rect id="rect4169" rx="9" ry="9" height="44" width="44" display="inline" y="2" x="2" fill="#abe1ad"/>
 </g>
 <rect id="rect4203" ry="20" rx="20" transform="matrix(0,-1,-1,0,0,0)" height="40" width="40" y="-44" x="-44" fill="#5c5c5c"/>
 <g id="g4248" opacity=".2" transform="translate(0,2)">
  <path id="path4250" d="m24 9v11.667h-9v-3.5c0-3.5 4.5-8.1667 9-8.1667"/>
  <path id="path4252" d="m23.959 9.0001v8.9064h-8.9589v3.6853 0.72448 6.3869c0 4.741 3.375 8.2968 9 8.2968 5.625 0.001 9-3.555 9-8.296v-6.3869-0.72448-3.6853-0.42041c0-3.637-4.521-8.4859-9.041-8.4859z"/>
 </g>
 <path id="rect3436-2" opacity=".2" d="m24 4c-11.08 0-20 8.92-20 20 0 0.168-0.004 0.333 0 0.5 0.2644-10.846 9.088-19.5 20-19.5s19.736 8.654 20 19.5c0.004-0.167 0-0.332 0-0.5 0-11.08-8.92-20-20-20z" fill="#fff"/>
 <g id="g4244" transform="translate(0,1)">
  <path id="path61" d="m24 9v11.667h-9v-3.5c0-3.5 4.5-8.1667 9-8.1667" fill="#f2f2f2"/>
  <path id="path63" d="m23.959 9.0001v8.9064h-8.9589v3.6853 0.72448 6.3869c0 4.741 3.375 8.2968 9 8.2968 5.625 0.001 9-3.555 9-8.296v-6.3869-0.72448-3.6853-0.42041c0-3.637-4.521-8.4859-9.041-8.4859z" fill="#f9f9f9"/>
 </g>
 <path id="path69" d="m24 16c0.551 0 1 0.576 1 1.2857v3.4286c0 0.709-0.449 1.285-1 1.285s-1-0.576-1-1.286v-3.4286c0-0.709 0.449-1.285 1-1.285" fill="#4d4d4d"/>
 <path id="rect4218" opacity=".3" d="m4.0117 23.5c-0.0041 0.167-0.0117 0.332-0.0117 0.5 0 11.08 8.92 20 20 20s20-8.92 20-20c0-0.168-0.008-0.333-0.012-0.5-0.264 10.846-9.076 19.5-19.988 19.5s-19.724-8.654-19.988-19.5z"/>
</svg>
